!!!COM: Paul Hindemith
!!!OTL: [T644_Hin-w47p51h6m3-h7m2]
**kern	**dynam	**kern	**dynam	**kern	**dynam	**kern	**dynam	**kern	**dynam
*grp:A	*grp:A	*grp:A	*grp:A	*grp:A	*grp:A	*grp:B	*grp:B	*grp:B	*grp:B
*part5	*part5	*part4	*part4	*part3	*part3	*part2	*part2	*part1	*part1
*staff5	*	*staff4	*	*staff3	*	*staff2	*	*staff1	*
*I"Violoncello	*	*I"Viola	*	*I"Violin I	*	*I"Clarinet in Bb	*	*I"Oboe	*
*I'Vc.	*	*I'Vla.	*	*I'Vln. I	*	*I'Cl.	*	*I'Ob.	*
*ICstr	*	*ICstr	*	*ICstr	*	*ICww	*	*ICww	*
*Icello	*	*Iviola	*	*Ivioln	*	*Iclars	*	*	*
*clefF4	*	*clefC3	*	*clefG2	*	*clefG2	*	*clefG2	*
*	*	*	*	*	*	*ITrd1c2	*	*	*
*k[]	*	*k[]	*	*k[]	*	*k[b-e-]	*	*k[]	*
*M9/8	*	*M9/8	*	*M9/8	*	*M9/8	*	*M9/8	*
=89	=89	=89	=89	=89	=89	=89	=89	=89	=89
!	!	!	!	!	!	!	!	!LO:TX:t=[[quarter-dot]=176]	!
!	!LO:DY:ed=brack	!	!	!	!LO:DY:ed=brack	!	!	!	!LO:DY:ed=brack
8GGL	pp	8%9r	.	8GL	pp	8%9r	.	(2.cc#XZ]	p
8D	.	.	.	8d	.	.	.	.	.
8GJ)j	.	.	.	8gJ)jj	.	.	.	.	.
(4F#X	.	.	.	(4f#X	.	.	.	.	.
8C#X	.	.	.	8c#X	.	.	.	.	.
4F#	.	.	.	4f#	.	.	.	4.dd#X	.
8G#X	.	.	.	8g#X	.	.	.	.	.
=90	=90	=90	=90	=90	=90	=90	=90	=90	=90
4Fn	<	8%9r	.	4fn	<	8%9r	.	2.b#X	<
8Cn	.	.	.	8cn	.	.	.	.	.
4F	.	.	.	4f	.	.	.	.	.
8E	.	.	.	8e	.	.	.	.	.
4E-X	.	.	.	4e-X	.	.	.	4.cc#X	.
8BB-X	[	.	.	8B-X	[	.	.	.	[[
=91	=91	=91	=91	=91	=91	=91	=91	=91	=91
4C-X	>	8%9r	.	4c-X	>	8%9r	.	4.ee	>
8AA-X	.	.	.	8A-X	.	.	.	.	.
8GGL	.	.	.	8GL	.	.	.	2.dd#X	.
8D	.	.	.	8d	.	.	.	.	.
8GJ)	.	.	.	8gJ)	.	.	.	.	.
(4F#X	]	.	.	(4f#X	]	.	.	.	.
8C#X	.	.	.	8c#X	.	.	.	.	]]
=92	=92	=92	=92	=92	=92	=92	=92	=92	=92
4F#X	.	8%9r	.	4f#X	.	8%9r	.	4.cc#X)	.
8G#X	.	.	.	8g#X	.	.	.	.	.
4A	.	.	.	4a	.	.	.	(8ddnL	.
.	.	.	.	.	.	.	.	8cc#	.
8E	.	.	.	8e	.	.	.	8ddJ	.
4A	<	.	.	4a	<	.	.	8eeL	<
.	.	.	.	.	.	.	.	8dd	.
8B	.	.	.	8b	.	.	.	8eeJ	.
=93	=93	=93	=93	=93	=93	=93	=93	=93	=93
8cL	.	8%9r	.	8ccL	.	8%9r	.	[2.ffn)	.
8B-X	.	.	.	8b-X	.	.	.	.	.
8A-XJ)	.	.	.	8a-XJ)	.	.	.	.	.
(4G	.	.	.	(4g	.	.	.	.	.
8D	.	.	.	8d	.	.	.	.	.
4G	.	.	.	4g	.	.	.	4.ff_	.
8An	.	.	.	8an	.	.	.	.	.
=94	=94	=94	=94	=94	=94	=94	=94	=94	=94
8B-XL	.	8%9r	.	8b-XL	.	8%9r	.	(4.ff]	.
8d-X	.	.	.	8dd-X	.	.	.	.	.
8cJ)	.	.	.	8ccJ)	.	.	.	.	.
(4Bn	.	.	.	(4bn	.	.	.	4.ee)	.
8F#X	.	.	.	8f#X	.	.	.	.	.
.	.	.	.	.	.	.	.	(<8qee/	.
4B	.	.	.	4b	.	.	.	(4.gg^)	.
8c#X	.	.	.	8cc#X	.	.	.	.	.
=95	=95	=95	=95	=95	=95	=95	=95	=95	=95
4d	.	8%9r	.	4dd	.	8%9r	.	2.ff#X)	.
8A	.	.	.	8a	.	.	.	.	.
4d	.	.	.	4dd	.	.	.	.	.
8e	.	.	.	8ee	.	.	.	.	.
.	.	.	.	.	.	.	.	(<8qff#/	.
8fL	.	.	.	8ffL	.	.	.	(4.aa^)	.
8c	.	.	.	8cc	.	.	.	.	.
8c#XJ)	.	.	.	8cc#XJ)	.	.	.	.	.
=96	=96	=96	=96	=96	=96	=96	=96	=96	=96
(4F#X	mp	(4f#X	mp	(4ff#X	mp	8%9r	.	4.gg#X)	.
8C#X	.	8c#X	.	8cc#X	.	.	.	.	.
.	.	.	.	.	.	.	.	(<8qgg#/	.
4F#	.	4f#	.	4ff#	.	.	.	(2.bb^)	mf
8G#X	.	8g#X	.	8gg#X	.	.	.	.	.
4Fn	.	4fn	.	4ffn	.	.	.	.	.
8Cn	.	8cn	.	8ccn	.	.	.	.	.
=97	=97	=97	=97	=97	=97	=97	=97	=97	=97
4F	.	4f	.	4ff	.	8%9r	.	[2.aa#X)	.
8E	.	8e	.	8ee	.	.	.	.	.
4E-X	.	4e-X	.	4ee-X	.	.	.	.	.
8BB-X	>	8B-X	>	8b-X	>	.	.	.	.
4C-X	.	4c-X	.	4cc-X	.	.	.	4.aa#_	>
8AA-X	.	8A-X	.	8a-X	.	.	.	.	.
=98	=98	=98	=98	=98	=98	=98	=98	=98	=98
8GGL	.	8GL	.	8gL	.	8%9r	.	4.aa#]	.
8D	.	8d	.	8dd	.	.	.	.	.
8GJ	.	8gJ)	.	8ggJ)	.	.	.	.	.
(4F#X)	.	(4f#X	.	(4ff#X	.	.	.	(4.bb~	.
8C#X	.	8c#X	.	8cc#X	.	.	.	.	.
4F#	.	4f#	.	4ff#	.	.	.	4.aan	.
8G#X	.	8g#X	.	8gg#X	.	.	.	.	.
=99	=99	=99	=99	=99	=99	=99	=99	=99	=99
4Fn	.	4fn	.	4ffn	.	8%9r	.	4.gg#X)	.
8Cn	.	8cn	.	8ccn	.	.	.	.	.
4F	.	4f	.	4ff	.	.	.	(4.aa~	.
8E	.	8e	.	8ee	.	.	.	.	.
4E-X	.	4e-X	.	4ee-X	.	.	.	4.ggn	.
8BB-X	.	8B-X	.	8b-X	.	.	.	.	.
=100	=100	=100	=100	=100	=100	=100	=100	=100	=100
4E-X	.	4e-X	.	4ee-X	.	8%9r	.	4.ff#X)	.
8D-X	.	8d-X	.	8dd-X	.	.	.	.	.
8CL	.	8cL	.	8ccL	.	.	.	(4.gg~	.
8GG	.	8G	.	8g	.	.	.	.	.
8AAJ)	.	8AJ)	.	8aJ)	.	.	.	.	.
(4BB-X	.	(4B-X	.	(4b-X	.	.	.	4.ffn	.
8GG	.	8G	.	8g	.	.	.	.	.
=101	=101	=101	=101	=101	=101	=101	=101	=101	=101
4FF#X	.	4F#X	.	4f#X	.	8%9r	.	4.ee	.
8AA	.	8A	.	8a	.	.	.	.	.
4DD	.	4D	.	4d	.	.	.	2.ff~	.
8FFn	.	8Fn	.	8fn	.	.	.	.	.
4DD-X	.	4D-X	.	4d-X	.	.	.	.	.
8EE-X)	.	8E-X)	.	8e-X)	.	.	.	.	.
!!LO:REH:t=7
=102	=102	=102	=102	=102	=102	=102	=102	=102	=102
(4.CC	pp	[2.G	pp	(4c	pp	4.r	.	4cc)	p
.	.	.	.	8G	.	.	.	8r	.
4.BB-X	.	.	.	4c	.	(4.f	p	4.r	.
.	.	.	.	8d-X	.	.	.	.	.
4.D-X	.	4.G_	.	4A-X	.	4.b-	.	4.r	.
.	.	.	.	8B-X	.	.	.	.	.
=103	=103	=103	=103	=103	=103	=103	=103	=103	=103
4.C)	<	4.G]	<	8cL	<	[2.gg-X^)	<	8%9r	.
.	.	.	.	8d-X	.	.	.	.	.
.	.	.	.	8e-XJ)	.	.	.	.	.
(4.BB-Xii	.	[2.A-X	.	(4f-Xii	.	.	.	.	.
.	.	.	.	8e-	.	.	.	.	.
4.E-X	[	.	[	4f-	[	4.gg-_	.	.	.
.	.	.	.	8a-X	.	.	[[	.	.
=	=	=	=	=	=	=	=	=	=
*-	*-	*-	*-	*-	*-	*-	*-	*-	*-
!!!system-decoration: [(s1,s2)][(s3,s4,s5)]
!!!RDF**dynam: > = dim.
!!!RDF**kern: > = above
!!!RDF**kern: < = below
!!!RDF**kern: Z = editorial accidental, brack
!!!EED: Claudio de Freitas
!!!EEV: 2021/09/15
!!!EED2: Daniel Wright
!!!EEV2: 2022/02/18
